X: 35216
T: Rory O'More
R: jig
M: 6/8
K: Fmajor
d|cAF AFF|AFF F2d|cAF AGF|EGG G2d|
cAF AGF|ABc d2c/B/|ABc cde|fFF F2||
f|fed dcA|BAG F2E|DEF FGA|Bdc c2f|
fed dcA|Bcd d2c|ABc cde|fFF F2||

